X:1

T:Devil and the Dirk, The

M:C|

L:1/8

R:Reel

S:Skinner – The Scottish Violinist

Z:AK/Fiddler’s Companion

K:D

{c}D | D/D/D FD AD {c}d2 | AD.F.D C(EE)F | D/D/D FD AD {c}d2 | AF .G.E F(DD) :|

|| c’ | d’ddd’ c’ccc’ | bBBb aAAa | gGGg fFFf | eBed ceac’ | d’ddd’ c’ccc’ |

bBBb aAAa | geag fae’b | (af).g.e fdd || [A,4D4] ||

                       


DEVIL ATE THE GROUNDHOG. See “Devil Eat the Groundhog.”

                       

DEVIL EAT THE GROUNDHOG. AKA - “Devil Ate the Groundhog.” Old-Time, Breakdown. USA, Kentucky. G Major. Standard tuning. AB (Silberberg, Titon): AA'B (Phillips). Source Owen Chapman, who learned the tune from his father, George “Doc” Chapman (b. circa 1850) says it was inspired by a hunter who had a lapse and left his skinned day’s hunt in the same room with his dog, according to Jeff Titon (2001). When he returned he found the dog had devoured the game, leaving the hunter to vexedly sing:

***

God almighty damned dog (x3)

The Devil’s eat the groundhog.

***

Sources for notated versions: Owen “Snake” Chapman (Whitesburg, Letcher County, Ky., 1990) [Phillips, Titon]; Scott Marckx [Silberberg]. Phillips (Traditional American Fiddle Tunes, vol. 1), 1994; pg. 68. Silberberg (Tunes I Learned at Tractor Tavern), 2002; pg. 34. Titon (Old-Time Kentucky Fiddle Tunes), 2001; No. 33, pg. 67. June Appal 0061, Owen “Snake” Chapman – “Fiddle Ditty” (1990). Rounder CD 0378, Snake Chapman – “Up in Chapman’s Hollow” (1996). Rounder 0409, Paul Smith – “Devil Eat the Groundhog.” Rounder Heritage Series 1166-11592-2, Paul Smith (et al) – “The Art of Traditional Fiddle” (2001. Learned from Snake Chapman). 5 String Productions 5SP05002, The Hoover Uprights – “Known for their Reputation” (2005).

See also listing at:

Jane Keefer’s Folk Music Index: An Index to Recorded Sources 

                       

DEVIL CAUGHT A NIGGER. Old‑Time, Fiddle Tune. The title appears in a list of traditional Ozark Mountain fiddle tunes compiled by musicologist/folklorist Vance Randolph, published in 1954.

                       

DEVIL CHASED ME ROUND THE STUMP. Old-Time, Breakdown. G Major. Standard tuning. AABB.

